outputs/icons/communication/point_token_round.svg

<svg width="1200" height="1200" viewBox="0 0 1200 1200" fill="none" xmlns="http://www.w3.org/2000/svg"><path d="M450 200C229 200 50 379 50 600C50 821 229 1000 450 1000C671 1000 850 821 850 600C850 379 671 200 450 200ZM600 487.5C600 508.21 583.21 525 562.5 525H500V737.5C500 758.21 483.211 775 462.5 775H437.5C416.789 775 400 758.21 400 737.5V525H337.5C316.79 525 300 508.21 300 487.5C300 466.789 316.79 450 337.5 450H562.5C583.21 450 600 466.789 600 487.5ZM1012.5 187.5L1124.965 238.62C1134.735 243.061 1134.735 256.938 1124.965 261.38L1012.5 312.5L961.38 424.965C956.94 434.735 943.06 434.735 938.62 424.965L887.5 312.5L775.035 261.38C765.265 256.938 765.265 243.061 775.035 238.62L887.5 187.5L938.62 75.035C943.06 65.265 956.94 65.265 961.38 75.035L1012.5 187.5ZM1012.5 887.5L1124.965 938.62C1134.735 943.06 1134.735 956.94 1124.965 961.38L1012.5 1012.5L961.38 1124.965C956.94 1134.735 943.06 1134.735 938.62 1124.965L887.5 1012.5L775.035 961.38C765.265 956.94 765.265 943.06 775.035 938.62L887.5 887.5L938.62 775.035C943.06 765.265 956.94 765.265 961.38 775.035L1012.5 887.5Z" fill="#1D1E23"/></svg>

<svg xmlns="http://www.w3.org/2000/svg" width="1200" height="1200" fill="none"><path fill="#000" d="M450 200C229 200 50 379 50 600s179 400 400 400 400-179 400-400-179-400-400-400m150 287.5c0 20.71-16.79 37.5-37.5 37.5H500v212.5c0 20.71-16.789 37.5-37.5 37.5h-25c-20.711 0-37.5-16.79-37.5-37.5V525h-62.5c-20.71 0-37.5-16.79-37.5-37.5s16.79-37.5 37.5-37.5h225c20.71 0 37.5 16.789 37.5 37.5m412.5-300 112.465 51.12c9.77 4.441 9.77 18.318 0 22.76L1012.5 312.5l-51.12 112.465c-4.44 9.77-18.32 9.77-22.76 0L887.5 312.5l-112.465-51.12c-9.77-4.442-9.77-18.319 0-22.76L887.5 187.5l51.12-112.465c4.44-9.77 18.32-9.77 22.76 0zm0 700 112.465 51.12c9.77 4.44 9.77 18.32 0 22.76L1012.5 1012.5l-51.12 112.465c-4.44 9.77-18.32 9.77-22.76 0L887.5 1012.5l-112.465-51.12c-9.77-4.44-9.77-18.32 0-22.76L887.5 887.5l51.12-112.465c4.44-9.77 18.32-9.77 22.76 0z"/></svg>
